app/src/assets/DenunciaIcon.svg

<?xml version="1.0" encoding="UTF-8" standalone="no"?>
<svg
   width="73"
   height="73"
   viewBox="0 0 73 73"
   fill="none"
   version="1.1"
   id="svg3"
   sodipodi:docname="DenunciaIcon.svg"
   inkscape:version="1.3.2 (091e20ef0f, 2023-11-25)"
   xmlns:inkscape="http://www.inkscape.org/namespaces/inkscape"
   xmlns:sodipodi="http://sodipodi.sourceforge.net/DTD/sodipodi-0.dtd"
   xmlns="http://www.w3.org/2000/svg"
   xmlns:svg="http://www.w3.org/2000/svg">
  <sodipodi:namedview
     id="namedview3"
     pagecolor="#ffffff"
     bordercolor="#000000"
     borderopacity="0.25"
     inkscape:showpageshadow="2"
     inkscape:pageopacity="0.0"
     inkscape:pagecheckerboard="0"
     inkscape:deskcolor="#d1d1d1"
     inkscape:zoom="11"
     inkscape:cx="36.454545"
     inkscape:cy="36.5"
     inkscape:window-width="1920"
     inkscape:window-height="1011"
     inkscape:window-x="0"
     inkscape:window-y="0"
     inkscape:window-maximized="1"
     inkscape:current-layer="svg3" />
  <g
     clip-path="url(#clip0_23_261)"
     id="g2">
    <g
       clip-path="url(#clip1_23_261)"
       id="g1">
      <path
         d="M40.4511 9.5752L66.7129 55.0603C67.1133 55.7539 67.3241 56.5406 67.3241 57.3415C67.3242 58.1424 67.1133 58.9291 66.7129 59.6227C66.3125 60.3163 65.7365 60.8923 65.043 61.2927C64.3494 61.6932 63.5626 61.904 62.7618 61.904H10.2383C9.43738 61.904 8.65062 61.6932 7.95705 61.2927C7.26348 60.8923 6.68753 60.3163 6.2871 59.6227C5.88667 58.9291 5.67587 58.1424 5.67587 57.3415C5.67588 56.5406 5.88669 55.7539 6.28713 55.0603L32.5489 9.5752C34.3039 6.53353 38.693 6.53353 40.4511 9.5752ZM36.5 45.625C35.6933 45.625 34.9196 45.9455 34.3492 46.5159C33.7788 47.0863 33.4583 47.86 33.4583 48.6667C33.4583 49.4734 33.7788 50.2471 34.3492 50.8175C34.9196 51.3879 35.6933 51.7084 36.5 51.7084C37.3067 51.7084 38.0804 51.3879 38.6508 50.8175C39.2212 50.2471 39.5417 49.4734 39.5417 48.6667C39.5417 47.86 39.2212 47.0863 38.6508 46.5159C38.0804 45.9455 37.3067 45.625 36.5 45.625ZM36.5 24.3334C35.755 24.3335 35.0359 24.607 34.4792 25.102C33.9225 25.5971 33.5668 26.2793 33.4796 27.0192L33.4583 27.375V39.5417C33.4592 40.317 33.7561 41.0626 34.2883 41.6264C34.8205 42.1901 35.5478 42.5293 36.3217 42.5748C37.0957 42.6202 37.8577 42.3684 38.4522 41.8708C39.0467 41.3732 39.4288 40.6674 39.5204 39.8976L39.5417 39.5417V27.375C39.5417 26.5683 39.2212 25.7947 38.6508 25.2242C38.0804 24.6538 37.3067 24.3334 36.5 24.3334Z"
         fill="#DE3F3F"
         id="path1" />
    </g>
  </g>
  <defs
     id="defs3">
    <clipPath
       id="clip0_23_261">
      <rect
         width="73"
         height="73"
         fill="white"
         id="rect2" />
    </clipPath>
    <clipPath
       id="clip1_23_261">
      <rect
         width="73"
         height="73"
         fill="white"
         id="rect3" />
    </clipPath>
  </defs>
  <path
     style="fill:#de3f3f;stroke-width:0.0909091"
     d="M 8.7974276,61.605344 C 6.57289,60.846082 5.3022396,58.502159 5.8762946,56.216835 6.0368169,55.577793 4.9705646,57.444644 23.912996,24.637215 33.738363,7.6201306 33.213115,8.4564023 34.46076,7.8436059 c 0.801215,-0.3935272 1.417553,-0.5128064 2.353394,-0.4554506 1.2865,0.078847 2.411603,0.6560652 3.157456,1.6198872 0.527758,0.681992 26.844821,46.2831385 27.067254,46.9010485 0.268991,0.747248 0.253694,2.219042 -0.03056,2.940015 -0.48214,1.222897 -1.472286,2.248945 -2.615195,2.710019 l -0.529476,0.213602 -27.227272,0.02069 -27.2272731,0.02069 z M 37.818182,51.442415 c 0.601546,-0.28351 1.115121,-0.78177 1.439895,-1.39696 0.212765,-0.40302 0.240078,-0.557598 0.240945,-1.363637 0.0012,-1.087943 -0.186172,-1.565453 -0.880031,-2.243075 -1.455376,-1.421321 -3.990836,-0.965894 -4.896024,0.879439 -0.191812,0.391033 -0.222831,0.58157 -0.221989,1.363636 8.7e-4,0.80805 0.02781,0.959611 0.242347,1.363637 0.334382,0.62971 0.945088,1.193531 1.582315,1.460842 0.735475,0.308526 1.757976,0.282319 2.492542,-0.06388 z m 0.06338,-9.171729 c 0.683173,-0.336324 1.225264,-0.923348 1.479044,-1.601633 0.179738,-0.480392 0.18485,-0.679907 0.18485,-7.214508 0,-6.5346 -0.0051,-6.734115 -0.18485,-7.214507 -0.260154,-0.695323 -0.793971,-1.264373 -1.52257,-1.623061 -0.53363,-0.262704 -0.695248,-0.298795 -1.338036,-0.298795 -0.642788,0 -0.804406,0.03609 -1.338035,0.298795 -0.728599,0.358688 -1.262416,0.927738 -1.52257,1.623061 -0.179738,0.480392 -0.18485,0.679907 -0.18485,7.214507 0,6.506787 0.0058,6.735965 0.182546,7.208349 0.624638,1.669495 2.599547,2.417585 4.244471,1.607792 z"
     id="path3" />
  <path
     style="fill:#de3f3f;stroke-width:0.0909091"
     d="m 8.7974276,61.605344 c -1.4810484,-0.5055 -2.5403688,-1.679318 -2.9472721,-3.26583 -0.1986953,-0.774711 -0.1281644,-1.850048 0.1686072,-2.570639 0.1226809,-0.297881 1.5944136,-2.91433 3.270517,-5.81433 1.6761033,-2.9 5.3501483,-9.261363 8.1645453,-14.136363 7.127833,-12.346587 10.858384,-18.806852 13.307494,-23.044836 2.333266,-4.0375238 2.622594,-4.4225046 3.715778,-4.9442337 0.796537,-0.3801517 1.413786,-0.4971559 2.337057,-0.4430062 1.294072,0.075897 2.454906,0.6771986 3.183722,1.6491404 0.191674,0.2556145 0.632865,0.9556626 0.980424,1.5556625 0.347559,0.6 1.789065,3.095455 3.203348,5.545455 1.414282,2.45 4.237168,7.338636 6.273081,10.863636 2.035913,3.525 6.003492,10.397727 8.816843,15.272727 2.813351,4.875 5.668008,9.819574 6.343683,10.987941 1.568173,2.711658 1.598612,2.788767 1.601746,4.057514 0.0021,0.835231 -0.03217,1.08748 -0.207774,1.530924 -0.485092,1.225001 -1.47378,2.249176 -2.616115,2.710019 l -0.529476,0.213602 -27.227272,0.02069 -27.2272731,0.02069 z M 37.583102,51.540568 c 0.626141,-0.234269 1.352253,-0.879371 1.671856,-1.485332 0.218627,-0.414511 0.244909,-0.56186 0.244972,-1.373418 6e-5,-0.781323 -0.03126,-0.972772 -0.222891,-1.362198 -1.116294,-2.268563 -4.433914,-2.269422 -5.551048,-0.0014 -0.192371,0.390549 -0.224042,0.582538 -0.224943,1.363636 -0.0012,1.017825 0.125335,1.368371 0.738947,2.047566 0.834158,0.923313 2.1743,1.248491 3.343107,0.811184 z m 0.321348,-9.287955 c 0.71139,-0.361681 1.295838,-1.032404 1.500692,-1.722219 0.210707,-0.709529 0.210707,-13.442168 0,-14.151697 -0.208838,-0.703232 -0.787618,-1.359342 -1.536981,-1.742333 -0.561876,-0.287169 -0.69523,-0.318182 -1.368161,-0.318182 -0.672931,0 -0.806285,0.03101 -1.368161,0.318182 -0.4377,0.223703 -0.737944,0.460033 -1.011154,0.795905 -0.695243,0.854704 -0.673863,0.582771 -0.645676,8.212418 0.0246,6.659198 0.02797,6.770838 0.216415,7.178114 0.737499,1.593904 2.62819,2.235564 4.213026,1.429812 z"
     id="path4" />
  <path
     style="fill:#de3f3f;stroke-width:0.0909091"
     d="M 8.7974276,61.60542 C 6.8648848,60.945578 5.6206264,59.082832 5.7515083,57.045455 c 0.07588,-1.181188 -0.5875519,0.05116 7.6837127,-14.272728 1.674593,-2.9 4.26107,-7.379545 5.747728,-9.954545 C 30.737047,12.805645 32.791727,9.2718385 33.075319,8.9249486 33.82318,8.0101622 34.929767,7.4631722 36.185846,7.3874042 c 1.981934,-0.1195523 3.324169,0.6871937 4.50587,2.7082388 0.305445,0.522396 1.701272,2.933902 3.101839,5.358902 5.338219,9.24281 9.82913,17.021895 13.776619,23.863637 2.250189,3.9 5.238738,9.075 6.64122,11.5 1.402482,2.425 2.644801,4.64086 2.760706,4.924134 0.85335,2.085587 -0.186145,4.646848 -2.306426,5.682919 l -0.711129,0.347492 -27.272727,0.02077 -27.2727271,0.02077 z M 37.843653,51.42285 C 38.402138,51.149608 38.97177,50.582664 39.287,49.98631 39.465091,49.649399 39.49584,49.456432 39.494873,48.681818 39.49354,47.613766 39.319314,47.15185 38.674641,46.507177 38.024956,45.857492 37.566455,45.683915 36.5,45.683915 c -1.066455,0 -1.524956,0.173577 -2.174641,0.823262 -0.536452,0.536452 -0.796922,1.121722 -0.849643,1.90913 -0.07443,1.111674 0.316321,2.006776 1.17928,2.701388 0.818911,0.659157 2.195781,0.790924 3.188657,0.305155 z m -0.372597,-8.970405 c 0.905768,-0.254177 1.815412,-1.259549 1.986725,-2.195798 0.06134,-0.33525 0.08528,-2.835762 0.06832,-7.136363 L 39.5,26.5 39.274896,26.045455 C 38.974227,25.438322 38.425908,24.906612 37.767775,24.583985 37.305743,24.357488 37.121687,24.319332 36.5,24.321162 c -0.591965,0.0017 -0.823621,0.04683 -1.245136,0.242324 -0.629649,0.292029 -1.233443,0.876904 -1.532355,1.484339 L 33.5,26.5 v 6.954545 6.954546 l 0.222509,0.452174 c 0.408956,0.831061 1.255141,1.501556 2.126923,1.685315 0.420916,0.08872 1.113214,0.04854 1.621624,-0.09414 z"
     id="path5" />
</svg>

<?xml version="1.0" encoding="UTF-8"?>
<svg id="svg3" width="73" height="73" fill="none" version="1.1" viewBox="0 0 73 73" xmlns="http://www.w3.org/2000/svg">
 <g id="g2" clip-path="url(#clip0_23_261)">
  <g id="g1" clip-path="url(#clip1_23_261)">
   <path id="path1" d="m40.451 9.5752 26.262 45.485c0.4004 0.6936 0.6112 1.4803 0.6112 2.2812 1e-4 0.8009-0.2108 1.5876-0.6112 2.2812s-0.9764 1.2696-1.6699 1.67c-0.6936 0.4005-1.4804 0.6113-2.2812 0.6113h-52.524c-0.80092 0-1.5877-0.2108-2.2812-0.6113-0.69357-0.4004-1.2695-0.9764-1.67-1.67s-0.61123-1.4803-0.61123-2.2812c1e-5 -0.8009 0.21082-1.5876 0.61126-2.2812l26.262-45.485c1.755-3.0417 6.1441-3.0417 7.9022 0zm-3.9511 36.05c-0.8067 0-1.5804 0.3205-2.1508 0.8909s-0.8909 1.3441-0.8909 2.1508 0.3205 1.5804 0.8909 2.1508 1.3441 0.8909 2.1508 0.8909 1.5804-0.3205 2.1508-0.8909 0.8909-1.3441 0.8909-2.1508-0.3205-1.5804-0.8909-2.1508-1.3441-0.8909-2.1508-0.8909zm0-21.292c-0.745 1e-4 -1.4641 0.2736-2.0208 0.7686-0.5567 0.4951-0.9124 1.1773-0.9996 1.9172l-0.0213 0.3558v12.167c9e-4 0.7753 0.2978 1.5209 0.83 2.0847 0.5322 0.5637 1.2595 0.9029 2.0334 0.9484 0.774 0.0454 1.536-0.2064 2.1305-0.704s0.9766-1.2034 1.0682-1.9732l0.0213-0.3559v-12.167c0-0.8067-0.3205-1.5803-0.8909-2.1508-0.5704-0.5704-1.3441-0.8908-2.1508-0.8908z" fill="#de3f3f"/>
  </g>
 </g>
 <defs id="defs3">
  <clipPath id="clip0_23_261">
   <rect id="rect2" width="73" height="73" fill="#fff"/>
  </clipPath>
  <clipPath id="clip1_23_261">
   <rect id="rect3" width="73" height="73" fill="#fff"/>
  </clipPath>
 </defs>
 <path id="path3" d="m8.7974 61.605c-2.2245-0.75926-3.4952-3.1032-2.9211-5.3885 0.16052-0.63904-0.90573 1.2278 18.037-31.58 9.8254-17.017 9.3001-16.181 10.548-16.794 0.80122-0.39353 1.4176-0.51281 2.3534-0.45545 1.2865 0.078847 2.4116 0.65607 3.1575 1.6199 0.52776 0.68199 26.845 46.283 27.067 46.901 0.26899 0.74725 0.25369 2.219-0.03056 2.94-0.48214 1.2229-1.4723 2.2489-2.6152 2.71l-0.52948 0.2136-54.455 0.04138zm29.021-10.163c0.60155-0.28351 1.1151-0.78177 1.4399-1.397 0.21276-0.40302 0.24008-0.5576 0.24094-1.3636 0.0012-1.0879-0.18617-1.5655-0.88003-2.2431-1.4554-1.4213-3.9908-0.96589-4.896 0.87944-0.19181 0.39103-0.22283 0.58157-0.22199 1.3636 8.7e-4 0.80805 0.02781 0.95961 0.24235 1.3636 0.33438 0.62971 0.94509 1.1935 1.5823 1.4608 0.73548 0.30853 1.758 0.28232 2.4925-0.06388zm0.06338-9.1717c0.68317-0.33632 1.2253-0.92335 1.479-1.6016 0.17974-0.48039 0.18485-0.67991 0.18485-7.2145 0-6.5346-0.0051-6.7341-0.18485-7.2145-0.26015-0.69532-0.79397-1.2644-1.5226-1.6231-0.53363-0.2627-0.69525-0.2988-1.338-0.2988s-0.80441 0.03609-1.338 0.2988c-0.7286 0.35869-1.2624 0.92774-1.5226 1.6231-0.17974 0.48039-0.18485 0.67991-0.18485 7.2145 0 6.5068 0.0058 6.736 0.18255 7.2083 0.62464 1.6695 2.5995 2.4176 4.2445 1.6078z" fill="#de3f3f" stroke-width=".090909"/>
 <path id="path4" d="m8.7974 61.605c-1.481-0.5055-2.5404-1.6793-2.9473-3.2658-0.1987-0.77471-0.12816-1.85 0.16861-2.5706 0.12268-0.29788 1.5944-2.9143 3.2705-5.8143 1.6761-2.9 5.3501-9.2614 8.1645-14.136 7.1278-12.347 10.858-18.807 13.307-23.045 2.3333-4.0375 2.6226-4.4225 3.7158-4.9442 0.79654-0.38015 1.4138-0.49716 2.3371-0.44301 1.2941 0.075897 2.4549 0.6772 3.1837 1.6491 0.19167 0.25561 0.63286 0.95566 0.98042 1.5557 0.34756 0.6 1.7891 3.0955 3.2033 5.5455 1.4143 2.45 4.2372 7.3386 6.2731 10.864s6.0035 10.398 8.8168 15.273 5.668 9.8196 6.3437 10.988c1.5682 2.7117 1.5986 2.7888 1.6017 4.0575 0.0021 0.83523-0.03217 1.0875-0.20777 1.5309-0.48509 1.225-1.4738 2.2492-2.6161 2.71l-0.52948 0.2136-54.455 0.04138zm28.786-10.065c0.62614-0.23427 1.3523-0.87937 1.6719-1.4853 0.21863-0.41451 0.24491-0.56186 0.24497-1.3734 6e-5 -0.78132-0.03126-0.97277-0.22289-1.3622-1.1163-2.2686-4.4339-2.2694-5.551-0.0014-0.19237 0.39055-0.22404 0.58254-0.22494 1.3636-0.0012 1.0178 0.12534 1.3684 0.73895 2.0476 0.83416 0.92331 2.1743 1.2485 3.3431 0.81118zm0.32135-9.288c0.71139-0.36168 1.2958-1.0324 1.5007-1.7222 0.21071-0.70953 0.21071-13.442 0-14.152-0.20884-0.70323-0.78762-1.3593-1.537-1.7423-0.56188-0.28717-0.69523-0.31818-1.3682-0.31818s-0.80628 0.03101-1.3682 0.31818c-0.4377 0.2237-0.73794 0.46003-1.0112 0.7959-0.69524 0.8547-0.67386 0.58277-0.64568 8.2124 0.0246 6.6592 0.02797 6.7708 0.21642 7.1781 0.7375 1.5939 2.6282 2.2356 4.213 1.4298z" fill="#de3f3f" stroke-width=".090909"/>
 <path id="path5" d="m8.7974 61.605c-1.9325-0.65984-3.1768-2.5226-3.0459-4.56 0.07588-1.1812-0.58755 0.05116 7.6837-14.273 1.6746-2.9 4.2611-7.3795 5.7477-9.9545 11.554-20.013 13.609-23.546 13.892-23.893 0.74786-0.91479 1.8544-1.4618 3.1105-1.5375 1.9819-0.11955 3.3242 0.68719 4.5059 2.7082 0.30544 0.5224 1.7013 2.9339 3.1018 5.3589 5.3382 9.2428 9.8291 17.022 13.777 23.864 2.2502 3.9 5.2387 9.075 6.6412 11.5s2.6448 4.6409 2.7607 4.9241c0.85335 2.0856-0.18614 4.6468-2.3064 5.6829l-0.71113 0.34749-54.545 0.04154zm29.046-10.183c0.55848-0.27324 1.1281-0.84019 1.4433-1.4365 0.17809-0.33691 0.20884-0.52988 0.20787-1.3045-0.001333-1.0681-0.17556-1.53-0.82023-2.1746-0.64968-0.64968-1.1082-0.82326-2.1746-0.82326s-1.525 0.17358-2.1746 0.82326c-0.53645 0.53645-0.79692 1.1217-0.84964 1.9091-0.07443 1.1117 0.31632 2.0068 1.1793 2.7014 0.81891 0.65916 2.1958 0.79092 3.1887 0.30516zm-0.3726-8.9704c0.90577-0.25418 1.8154-1.2595 1.9867-2.1958 0.06134-0.33525 0.08528-2.8358 0.06832-7.1364l-0.026101-6.6203-0.2251-0.45454c-0.30067-0.60713-0.84899-1.1388-1.5071-1.4615-0.46203-0.2265-0.64609-0.26465-1.2678-0.26282-0.59196 0.0017-0.82362 0.04683-1.2451 0.24232-0.62965 0.29203-1.2334 0.8769-1.5324 1.4843l-0.22251 0.45218v13.909l0.22251 0.45217c0.40896 0.83106 1.2551 1.5016 2.1269 1.6853 0.42092 0.08872 1.1132 0.04854 1.6216-0.09414z" fill="#de3f3f" stroke-width=".090909"/>
</svg>
